dest/img/img-trust-2.svg

<svg fill="none" height="40" viewBox="0 0 195 40" width="195" xmlns="http://www.w3.org/2000/svg" xmlns:xlink="http://www.w3.org/1999/xlink"><clipPath id="a"><path d="m0 0h195v40h-195z"/></clipPath><g clip-path="url(#a)" fill="#576472"><path d="m4.62 23.1396h-4.62v8.4h4.62z"/><path d="m17.4036 1.54c-2.4805-1.32-4.2009-1.54-8.26172-1.54h-9.14188v19.12h9.10187c3.62073 0 6.32133-.22 8.70183-1.8 2.6005-1.72 3.9408-4.58 3.9408-7.88 0-3.58-1.6604-6.44-4.3409-7.9zm-7.2415 13.58h-5.54115v-11.02l5.22107-.04c4.76098-.06 7.14148 1.62 7.14148 5.42 0 4.08-2.9406 5.64-6.8214 5.64z"/><path d="m190.139 8.38035-4.401 12.48005c-.8 2.24-1.2 3.52-1.94 5.6799h-.08c-.58-1.86-1.12-3.3599-1.86-5.5599l-4.261-12.62005h-5.121l8.861 23.16005c-.2.5-.4 1.0199-.62 1.5599-.74 1.8-2.5 2.9801-4.441 2.9801h-2.2v3.9399h2.26c3.661 0 6.962-2.24 8.322-5.64 2.821-7.0599 7.622-19.0799 10.362-25.97995z"/><path d="m67.2539 27.0802c0 8.38-3.8408 12.92-11.6024 12.92-5.7812 0-9.2619-3.04-10.5022-7.62h4.681c.8002 2.12 2.4805 4.02 5.9012 4.02 5.3011 0 7.1815-3.3 7.1815-9.58-.04 0-.04-.04-.08-.04-1.1403 1.98-3.7008 3.74-7.7616 3.74-6.5214 0-10.6622-4.72-10.6622-11.34 0-6.88 4.5009-11.50002 10.7222-11.50002 4.0208 0 6.4413 1.72 7.7616 3.62002-.04-.48-.04-.96-.04-1.46002v-1.46h4.4009zm-18.0037-7.94c0 4.5 2.5205 7.72 6.8414 7.72 3.8808 0 6.8814-2.74 6.8814-7.84 0-4.54-2.6406-7.58-6.8814-7.58-4.2409 0-6.8414 3.02-6.8414 7.7z"/><path d="m74.5551 21.1197c.1801 4.06 2.7806 7.28 7.2815 7.28 3.1807 0 4.721-1.5 5.9012-3.48h4.4609c-1.3202 4.18-4.981 7.18-10.5421 7.18-7.1415 0-11.6024-4.8-11.6024-12.04s4.6209-12.33997 11.6024-12.33997c7.5415 0 11.0222 5.73997 11.0222 11.95997v1.46zm13.4828-3.52c-.4001-3.66-2.7006-6.26-6.4813-6.26-3.6208 0-6.4014 2.38-6.8414 6.26z"/><path d="m99.8204 8.37981v2.95999c.7406-2.16 3.0006-3.54 5.6016-3.54.38 0 .76.02 1.14.08v4.06c-.52-.1-1.02-.14-1.54-.14-4.201 0-4.982 3.08-4.982 7.72v12h-4.4604v-19c0-1.46 0-2.73999-.04-4.13999z"/><path d="m152.371 28.2199c-1.2 1.98-3.441 3.88-7.362 3.88-5.381 0-8.021-3.3-8.021-9.3v-14.42002h4.441v12.74002c0 4.54 1.5 7.28 5.121 7.28 4.761 0 5.601-4.32 5.601-9.4v-10.62002h4.461v19.66002c0 1.2 0 2.34.04 3.48h-4.281z"/><path d="m166.634 8.38012h4.321v3.43998h-4.321v13.9c0 2.2 1.101 2.86 2.821 2.86.36 0 .74-.04 1.1-.08v3.3c-.56.1-1.14.16-1.72.18-4.101 0-6.701-1.36-6.701-6v-14.16h-3.501v-3.43998h3.481v-6.26h4.52z"/><path d="m109.282 0h7.722c11.562.08 17.123 5.72 17.163 15.84.04 8.62-4.421 15.6-16.403 15.7h-8.482zm4.681 27.6h2.701c8.381 0 12.762-3.2 12.762-11.78-.02-7.54-4.361-11.86-12.322-11.86-1.54 0-3.141.04-3.141.04z"/><path d="m37.9478 31.5398c-.14-.92-.14-1.5-.22-3.18-1.7604 2.52-4.1009 3.62-7.8016 3.62-4.861 0-8.3818-2.38-8.3818-6.7 0-4.98 4.761-6.62 10.9423-7.46 1.5403-.22 3.2606-.4 4.761-.52 0-4.58-2.5406-5.96-5.2011-5.96-2.6606 0-4.601 1.88-4.601 4.3h-4.3208c0-4.7 3.7007-7.84 9.0018-7.84s9.4219 2.2 9.4219 10.68v4.5c0 3.76.1801 6.48.5802 8.6h-4.1809zm-11.6024-6.32c0 2.16 1.7604 3.52 4.581 3.52 4.1408 0 6.3613-2.52 6.3613-7.02-.02-.42 0-.82.04-1.24-7.5416.78-10.9823 1.52-10.9823 4.74z"/></g></svg>

<svg width="195" height="40" viewBox="0 0 195 40" fill="none" xmlns="http://www.w3.org/2000/svg">
<g clip-path="url(#clip0)">
<path d="M4.62 23.1396H0V31.5396H4.62V23.1396Z" fill="#576472"/>
<path d="M17.4036 1.54C14.9231 0.22 13.2027 0 9.14188 0H0V19.12H9.10187C12.7226 19.12 15.4232 18.9 17.8037 17.32C20.4042 15.6 21.7445 12.74 21.7445 9.44C21.7445 5.86 20.0841 3 17.4036 1.54ZM10.1621 15.12H4.62095V4.1L9.84202 4.06C14.603 4 16.9835 5.68 16.9835 9.48C16.9835 13.56 14.0429 15.12 10.1621 15.12Z" fill="#576472"/>
<path d="M190.139 8.38035L185.738 20.8604C184.938 23.1004 184.538 24.3804 183.798 26.5403H183.718C183.138 24.6803 182.598 23.1804 181.858 20.9804L177.597 8.36035H172.476L181.337 31.5204C181.137 32.0204 180.937 32.5403 180.717 33.0803C179.977 34.8803 178.217 36.0604 176.276 36.0604H174.076V40.0003H176.336C179.997 40.0003 183.298 37.7603 184.658 34.3603C187.479 27.3004 192.28 15.2804 195.02 8.38035H190.139Z" fill="#576472"/>
<path d="M67.2539 27.0802C67.2539 35.4602 63.4131 40.0002 55.6515 40.0002C49.8703 40.0002 46.3896 36.9602 45.1493 32.3802H49.8303C50.6305 34.5002 52.3108 36.4002 55.7315 36.4002C61.0326 36.4002 62.913 33.1002 62.913 26.8202C62.873 26.8202 62.873 26.7802 62.833 26.7802C61.6927 28.7602 59.1322 30.5202 55.0714 30.5202C48.55 30.5202 44.4092 25.8002 44.4092 19.1802C44.4092 12.3002 48.9101 7.68018 55.1314 7.68018C59.1522 7.68018 61.5727 9.40018 62.893 11.3002C62.853 10.8202 62.853 10.3402 62.853 9.84018V8.38018H67.2539V27.0802ZM49.2502 19.1402C49.2502 23.6402 51.7707 26.8602 56.0916 26.8602C59.9724 26.8602 62.973 24.1202 62.973 19.0202C62.973 14.4802 60.3324 11.4402 56.0916 11.4402C51.8507 11.4402 49.2502 14.4602 49.2502 19.1402Z" fill="#576472"/>
<path d="M74.5551 21.1197C74.7352 25.1797 77.3357 28.3997 81.8366 28.3997C85.0173 28.3997 86.5576 26.8997 87.7378 24.9197H92.1987C90.8785 29.0997 87.2177 32.0997 81.6566 32.0997C74.5151 32.0997 70.0542 27.2997 70.0542 20.0597C70.0542 12.8197 74.6751 7.71973 81.6566 7.71973C89.1981 7.71973 92.6788 13.4597 92.6788 19.6797V21.1397L74.5551 21.1197ZM88.0379 17.5997C87.6378 13.9397 85.3373 11.3397 81.5566 11.3397C77.9358 11.3397 75.1552 13.7197 74.7152 17.5997H88.0379Z" fill="#576472"/>
<path d="M99.8204 8.37981V11.3398C100.561 9.1798 102.821 7.7998 105.422 7.7998C105.802 7.7998 106.182 7.8198 106.562 7.8798V11.9398C106.042 11.8398 105.542 11.7998 105.022 11.7998C100.821 11.7998 100.04 14.8798 100.04 19.5198V31.5198H95.5796V12.5198C95.5796 11.0598 95.5796 9.77981 95.5396 8.37981H99.8204Z" fill="#576472"/>
<path d="M152.371 28.2199C151.171 30.1999 148.93 32.0999 145.009 32.0999C139.628 32.0999 136.988 28.7999 136.988 22.7999V8.37988H141.429V21.1199C141.429 25.6599 142.929 28.3999 146.55 28.3999C151.311 28.3999 152.151 24.0799 152.151 18.9999V8.37988H156.612V28.0399C156.612 29.2399 156.612 30.3799 156.652 31.5199H152.371V28.2199Z" fill="#576472"/>
<path d="M166.634 8.38012H170.955V11.8201H166.634V25.7201C166.634 27.9201 167.735 28.5801 169.455 28.5801C169.815 28.5801 170.195 28.5401 170.555 28.5001V31.8001C169.995 31.9001 169.415 31.9601 168.835 31.9801C164.734 31.9801 162.134 30.6201 162.134 25.9801V11.8201H158.633V8.38012H162.114V2.12012H166.634V8.38012Z" fill="#576472"/>
<path d="M109.282 0H117.004C128.566 0.08 134.127 5.72 134.167 15.84C134.207 24.46 129.746 31.44 117.764 31.54H109.282V0ZM113.963 27.6H116.664C125.045 27.6 129.426 24.4 129.426 15.82C129.406 8.28 125.065 3.96 117.104 3.96C115.564 3.96 113.963 4 113.963 4V27.6Z" fill="#576472"/>
<path d="M37.9478 31.5398C37.8078 30.6198 37.8078 30.0398 37.7278 28.3598C35.9674 30.8798 33.6269 31.9798 29.9262 31.9798C25.0652 31.9798 21.5444 29.5998 21.5444 25.2798C21.5444 20.2998 26.3054 18.6598 32.4867 17.8198C34.027 17.5998 35.7473 17.4198 37.2477 17.2998C37.2477 12.7198 34.7071 11.3398 32.0466 11.3398C29.386 11.3398 27.4456 13.2198 27.4456 15.6398H23.1248C23.1248 10.9398 26.8255 7.7998 32.1266 7.7998C37.4277 7.7998 41.5485 9.9998 41.5485 18.4798V22.9798C41.5485 26.7398 41.7286 29.4598 42.1287 31.5798H37.9478V31.5398ZM26.3454 25.2198C26.3454 27.3798 28.1058 28.7398 30.9264 28.7398C35.0672 28.7398 37.2877 26.2198 37.2877 21.7198C37.2677 21.2998 37.2877 20.8998 37.3277 20.4798C29.7861 21.2598 26.3454 21.9998 26.3454 25.2198Z" fill="#576472"/>
</g>
<defs>
<clipPath id="clip0">
<rect width="195" height="40" fill="white"/>
</clipPath>
</defs>
</svg>
